X:703
T:
N:Ridmarsch,
S:efter »Florsen» i Burs.
O:Gotland, Burs
R:marsch
M:2/4
L:1/16
K:F
(fc)(Ac) (Bd)(cB)|(AF)(Ac) (Bd)(cB)|(AF)(Ac) (Bd)(cB)|1 (BA)(GF) F2C2:|
[2 (cd)(eg) f4|:(ge)(cG) (ce)(gb)|(af)(cA) (ce)(fa)|(ge)(cG) (ce)(ga)|
(gf)(ed) c4|(dB)(FB) (df)(ef)|(cA)(FA) (cf)(ef)|(cd)(eg) (fe)(fd)|(cA)(BG) F4:|

